!!!COM: Beethoven
!!!OTL: Acht Variationen uber "Une fievre brulante" aus "Richard Coeur de Lion" von A.E.M. Gretry
!!!Variation: Variation 2 c
**function	**harm	**kern	**kern
*	*	*clefF4	*clefG2
*	*	*k[]	*k[]
*M3/4	*M3/4	*M3/4	*M3/4
*C:	*C:	*C:	*C:
4T	G:maj	(4G	12ddL
.	.	.	12b
.	.	.	12gJ
=81	=81	=81	=81
4T	G:maj	4Fn')	12dL
.	.	.	12b
.	.	.	12ddJ
4T	C#:dim/b3	4E'	12eL
.	.	.	12cc#
.	.	.	12eeJ
4T	D:min	4D'	12fL
.	.	.	12dd
.	.	.	12ffJ
=82	=82	=82	=82
2.T	C#:dim	4C#'	12gL
.	.	.	12ee
.	.	.	12ggJ
.	.	4r	12f#L
.	.	.	12dd#
.	.	.	12ff#J
.	.	4r	12gL
.	.	.	12ee
.	.	.	12ggJ
=83	=83	=83	=83
2T	D:maj/5	4AA	12gL
.	.	.	12ee
.	.	.	12ggJ
.	.	4A	12fnL
.	.	.	12dd
.	.	.	12ffJ
4T	A:maj	4A	12eL
.	.	.	12cc#
.	.	.	12eeJ
=84	=84	=84	=84
2.T	D:min	4D	12fL
.	.	.	12dd
.	.	.	12ffJ
.	.	4r	12eL
.	.	.	12cc#
.	.	.	12eeJ
.	.	4r	12fL
.	.	.	12dd
.	.	.	12ffJ
=85	=85	=85	=85
4T	G:7/3	4G 4BB	12fL
.	.	.	12dd
.	.	.	12ffJ
4T	G:7/5	4G 4D	12dL
.	.	.	12b
.	.	.	12ddJ
4T	G:7/b7	4G 4F	12dL
.	.	.	12b
.	.	.	12ddJ
=86	=86	=86	=86
2.T	G:7/3	4G 4BB	12fL
.	.	.	12dd
.	.	.	12ffJ
.	.	4r	12eL
.	.	.	12cc#
.	.	.	12eeJ
.	.	4G 4BB	12fL
.	.	.	12dd
.	.	.	12ffJ
=87	=87	=87	=87
4T	C:maj	4G 4C	12eL
.	.	.	12g
.	.	.	12eeJ
4T	G:maj/3	4G 4BB	12dL
.	.	.	12g
.	.	.	12ddJ
4T	F#:dim/b3	4G 4AA	12cnL
.	.	.	12f#
.	.	.	12ccJ
=88	=88	=88	=88
2.D	G:maj	4G 4GG	12bL
.	.	.	12cc
.	.	.	12cc#J
.	.	4r	12ddL
.	.	.	12cc
.	.	.	12bJ
.	.	4r	12aL
.	.	.	12g
.	.	.	12fJ
*-	*-	*-	*-
!!!EMD: Edited in humdrumR 0.7.0.3 on 2024-01-19
